public/icons/08.svg

<svg width="46" height="26" viewBox="0 0 46 26" fill="none" xmlns="http://www.w3.org/2000/svg">
<path d="M4.68324 25.9287L0.798243 22.0437V4.01871L4.68324 0.133709H17.6332L21.5182 4.01871V22.0437L17.6332 25.9287H4.68324ZM8.56824 20.9587H13.7482L14.9732 19.7337V6.32871L13.7482 5.10371H8.56824L7.34324 6.32871V19.7337L8.56824 20.9587ZM27.9716 25.9287L24.3316 22.4987V15.2187L27.2716 12.5237L24.9616 10.4587V3.56371L28.6366 0.133709H40.8866L44.5616 3.56371V10.4587L42.2516 12.5237L45.1916 15.2187V22.4987L41.4816 25.9287H27.9716ZM32.4866 10.0387H37.0016L38.2266 8.81371V6.32871L37.0016 5.10371H32.4866L31.2616 6.32871V8.81371L32.4866 10.0387ZM32.1016 20.9587H37.4216L38.6466 19.7337V16.2337L37.4216 15.0087H32.1016L30.8766 16.2337V19.7337L32.1016 20.9587Z" fill="url(#paint0_linear_1343_350)"/>
<defs>
<linearGradient id="paint0_linear_1343_350" x1="-1" y1="-6.56929" x2="30.4451" y2="27.8965" gradientUnits="userSpaceOnUse">
<stop stop-color="#E42BC8"/>
<stop offset="1" stop-color="#5670FD"/>
</linearGradient>
</defs>
</svg>

<svg width="46" height="26" fill="none" xmlns="http://www.w3.org/2000/svg"><path d="M4.683 25.929.798 22.044V4.019L4.683.134h12.95l3.885 3.885v18.025l-3.885 3.885H4.683zm3.885-4.97h5.18l1.225-1.225V6.329l-1.225-1.225h-5.18L7.343 6.329v13.405l1.225 1.225zm19.404 4.97-3.64-3.43v-7.28l2.94-2.695-2.31-2.065V3.564l3.675-3.43h12.25l3.675 3.43v6.895l-2.31 2.065 2.94 2.695v7.28l-3.71 3.43h-13.51zm4.515-15.89h4.515l1.225-1.225V6.329l-1.225-1.225h-4.515l-1.225 1.225v2.485l1.225 1.225zm-.385 10.92h5.32l1.225-1.225v-3.5l-1.225-1.225h-5.32l-1.225 1.225v3.5l1.225 1.225z" fill="url(#a)"/><defs><linearGradient id="a" x1="-1" y1="-6.569" x2="30.445" y2="27.896" gradientUnits="userSpaceOnUse"><stop stop-color="#E42BC8"/><stop offset="1" stop-color="#5670FD"/></linearGradient></defs></svg>
